X:0096
T:Cupid's Recruiting Serjeant
M:2/4
L:1/8
Q:1/4=104
I: :: ::
Z:Jack Campin * www.campin.me.uk * 2009
K:G
(B/c/)|dBAB|G2AB   |cAFA|DFAc   |Bgfe|dcBA|B2G>G|G3:|
(B/c/)|dBec|d3 B/c/|dBec|d3 B/c/|dBgf|edcB|A2A>A|A3
 B/c/ |dBAB|G2AB   |cAFA|DFAc   |Bgfe|dcBA|B2G>G|G3:|

